Simply-Purple-Circles/scalable/apps/accessories-text-editor.svg

<svg xmlns="http://www.w3.org/2000/svg" width="48" height="48" viewBox="0 0 12.7 12.7"><path fill="#963996" d="M6.344.077A6.267 6.267 0 0 0 .076 6.344a6.267 6.267 0 0 0 6.268 6.267 6.267 6.267 0 0 0 6.267-6.267A6.267 6.267 0 0 0 6.344.077zm-.018.932a5.388 5.388 0 0 1 5.388 5.39 5.388 5.388 0 0 1-5.388 5.387A5.388 5.388 0 0 1 .937 6.398a5.388 5.388 0 0 1 5.39-5.389zm2.92 1.421a.377.377 0 0 0-.268.11l-.572.571 1.25 1.248.572-.57a.377.377 0 0 0 0-.534l-.714-.714a.377.377 0 0 0-.268-.11zm-1.107.948L4.695 6.816l1.25 1.247 3.444-3.436zm-5.26.362a.53.53 0 0 0-.53.529v5.29c0 .292.238.53.53.53H8.17c.29 0 .53-.238.53-.53V5.778l-.82.816v2.678H3.169V4.557h3.326l.82-.817zm1.547 3.342l-.268 1.514 1.517-.265z"/></svg>

<?xml version="1.0" encoding="UTF-8" standalone="no"?>
<svg
   xmlns:dc="http://purl.org/dc/elements/1.1/"
   xmlns:cc="http://creativecommons.org/ns#"
   xmlns:rdf="http://www.w3.org/1999/02/22-rdf-syntax-ns#"
   xmlns:svg="http://www.w3.org/2000/svg"
   xmlns="http://www.w3.org/2000/svg"
   xmlns:sodipodi="http://sodipodi.sourceforge.net/DTD/sodipodi-0.dtd"
   xmlns:inkscape="http://www.inkscape.org/namespaces/inkscape"
   width="48"
   height="48"
   viewBox="0 0 12.7 12.7"
   version="1.1"
   id="svg4"
   sodipodi:docname="accessories-text-editor.svg"
   inkscape:version="0.92.4 (5da689c313, 2019-01-14)">
  <metadata
     id="metadata10">
    <rdf:RDF>
      <cc:Work
         rdf:about="">
        <dc:format>image/svg+xml</dc:format>
        <dc:type
           rdf:resource="http://purl.org/dc/dcmitype/StillImage" />
        <dc:title></dc:title>
      </cc:Work>
    </rdf:RDF>
  </metadata>
  <defs
     id="defs8" />
  <sodipodi:namedview
     pagecolor="#ffffff"
     bordercolor="#666666"
     borderopacity="1"
     objecttolerance="10"
     gridtolerance="10"
     guidetolerance="10"
     inkscape:pageopacity="0"
     inkscape:pageshadow="2"
     inkscape:window-width="1087"
     inkscape:window-height="480"
     id="namedview6"
     showgrid="false"
     inkscape:zoom="4.9166667"
     inkscape:cx="2.1355932"
     inkscape:cy="24"
     inkscape:window-x="0"
     inkscape:window-y="25"
     inkscape:window-maximized="0"
     inkscape:current-layer="svg4" />
  <path
     d="M 6.344,0.077 A 6.267,6.267 0 0 0 0.076,6.344 6.267,6.267 0 0 0 6.344,12.611 6.267,6.267 0 0 0 12.611,6.344 6.267,6.267 0 0 0 6.344,0.077 Z M 6.326,1.009 A 5.388,5.388 0 0 1 11.714,6.399 5.388,5.388 0 0 1 6.326,11.786 5.388,5.388 0 0 1 0.937,6.398 5.388,5.388 0 0 1 6.327,1.009 Z M 9.246,2.43 A 0.377,0.377 0 0 0 8.978,2.54 l -0.572,0.571 1.25,1.248 0.572,-0.57 a 0.377,0.377 0 0 0 0,-0.534 L 9.514,2.541 A 0.377,0.377 0 0 0 9.246,2.431 Z M 8.139,3.378 4.695,6.816 5.945,8.063 9.389,4.627 Z M 2.879,3.74 a 0.53,0.53 0 0 0 -0.53,0.529 v 5.29 c 0,0.292 0.238,0.53 0.53,0.53 H 8.17 c 0.29,0 0.53,-0.238 0.53,-0.53 V 5.778 L 7.88,6.594 V 9.272 H 3.169 V 4.557 H 6.495 L 7.315,3.74 Z M 4.426,7.082 4.158,8.596 5.675,8.331 Z"
     id="path2"
     inkscape:connector-curvature="0"
     style="fill:#963996" />
</svg>
